X:8647
T:Kiss Me Kate
S:Trad, arr. Paddy O'Brien 
R:reel
E:9
I:speed 350
M:C|
K:G
F|~G2 Bd gdBG|DEGB AE~E2|GABd gdBd|ecBc AGEF|\
~G2Bd gdBG|DEGB AE E2|GABd gdBd|ecAc BG G||\
g|fgag fd~d2|gfga bgeg|fgag fd~d2|fdef ~g2(3def|\
gbaf ~g2 bg|fgag fd~d2|fded fd~d2|fdef gedB||**
\vfill\eject
